X:1
T:Title
%%score [ ( 1 2 ) ( 3 4 ) ] { ( 5 6 ) | 7 }
L:1/8
Q:1/4=120
M:4/4
K:C
V:1 treble nm="Midi_74"
V:2 treble 
V:3 bass nm="Midi_74"
V:4 bass 
V:5 treble nm="Org."
V:6 treble 
V:7 bass 
V:1
 G8 | (B3 A) (G2 F2) | E8 || G8 | A4 (B2 c2) | d4 c4 |{c} B8 || d8 | (f3 e) (d2 c2) | B8 || B8 | %11
 c4"^William Henry Havergal\n(1793-1870)" (d2 e2) | f4 B4 | c8 |] %14
V:2
 E8 | (G3 F) (E2 D2) | C8 || G8 | F4 (F2 E2) | F4 E4 |{E} D8 || G8 | G4 G4 | G8 || E8 | %11
 E4 (A2 G2) | F4 F4 | E8 |] %14
V:3
 C8 | C4 (C2 B,2) | C8 || C8 | C4 (F,2 G,2) | G,4 G,4 | G,8 || B,8 | (D3 C) (B,2 A,2) | G,8 || %10
 B,8 | (A,2 E2) (D2 ^C2) | D4 D4 | C8 |] %14
V:4
 C,8 | F,4 G,4 | A,8 || E,8 | (F,3 E,) (D,2 C,2) | B,,4 C,4 | G,8 || G,8 | G,4 G,4 | G,8 || ^G,8 | %11
 (A,3 G,) (F,2 E,2) | D,4 G,4 | C,8 |] %14
V:5
 G8 | B3 A G2 F2 | E8 || [CG]8 | A4 B2 c2 | d4 c4 |{c} B8 || d8 | f3 e d2 c2 | B8 || B8 | %11
 c4 d2 e2 | f4 B4 | c8 |] %14
V:6
 E8 | G3 F E2 D2 | C8 || G8 | [CF]4 F2 E2 | F4 E4 |{E} D8 || B8 | d3 c B2 A2 | G8 || E8 | %11
 [EA]4 A2 [G^c]2 | [Fd]4 [DF]4 | [CE]8 |] %14
V:7
 C,8 | F,4 G,4 | A,8 || E,8 | F,3 E, D,2 C,2 | B,,4 C,4 | G,8 || G,8 | G,4 G,4 | G,8 || ^G,8 | %11
 A,3 G, F,2 E,2 | D,4 G,4 | C,8 |] %14

